X:5896
T:Scottishes du Père Jean
O:england
M:2/4
L:1/16
K:G
P:1
GFGA B2GB|A2GF G2D2|GFGA B2GB|A2GF G4:|\
|:GABc d2g2|e2fe d2~B2|GABc d2g2|e2fe d4:|
P:2
GABc d2g2|e2fe d2~B2|\
c2~A2 B2dd|1 edcB ABcA:|2 cBAF G4||
B3A B2B/d/B|GABc d2dd|\
g3e f3~e2|1 edef e2d2:|2 dcBA G4||


